assets/knowledgebase/icons/easyoptouts.svg

<svg xmlns="http://www.w3.org/2000/svg" xml:space="preserve" style="fill-rule:evenodd;clip-rule:evenodd;stroke-linejoin:round;stroke-miterlimit:2" viewBox="0 0 128 128"><g transform="matrix(1.48478 0 0 1.51295 8.594 -75.163)"><path d="M80.42 70.83v42.302c0 11.673-9.658 21.151-21.552 21.151H15.764c-11.895 0-21.552-9.478-21.552-21.151V70.83c0-11.673 9.657-21.15 21.552-21.15h43.104c11.894 0 21.552 9.477 21.552 21.15Z" style="fill:#86fcbb"/><clipPath id="a"><path d="M80.42 70.83v42.302c0 11.673-9.658 21.151-21.552 21.151H15.764c-11.895 0-21.552-9.478-21.552-21.151V70.83c0-11.673 9.657-21.15 21.552-21.15h43.104c11.894 0 21.552 9.477 21.552 21.15Z"/></clipPath><g clip-path="url(#a)"><g transform="matrix(.86208 0 0 .84603 -5.788 47.474)"><clipPath id="b"><path d="M0 0h600v100H0z"/></clipPath><g clip-path="url(#b)"><path d="M274.854 26.766c-4.202 0-8.06.986-11.576 2.958-3.516 1.973-6.303 4.717-8.36 8.233-2.059 3.473-3.089 7.396-3.089 11.77 0 4.415 1.03 8.383 3.088 11.898 2.058 3.473 4.845 6.196 8.361 8.168 3.516 1.972 7.374 2.959 11.576 2.959 4.202 0 8.06-.987 11.577-2.959 3.516-1.972 6.281-4.695 8.297-8.168 2.058-3.515 3.087-7.483 3.087-11.899 0-4.373-1.03-8.296-3.087-11.77-2.016-3.515-4.781-6.26-8.297-8.232-3.473-1.972-7.332-2.958-11.577-2.958Zm119.046 0c-4.202 0-8.06.986-11.576 2.958-3.516 1.973-6.303 4.717-8.36 8.233-2.059 3.473-3.089 7.396-3.089 11.77 0 4.415 1.03 8.383 3.088 11.898 2.058 3.473 4.845 6.196 8.36 8.168 3.517 1.972 7.375 2.959 11.577 2.959s8.062-.987 11.578-2.959 6.28-4.695 8.295-8.168c2.058-3.515 3.088-7.483 3.088-11.899 0-4.373-1.03-8.296-3.088-11.77-2.015-3.515-4.779-6.26-8.295-8.232-3.473-1.972-7.333-2.958-11.578-2.958Zm-291.665.58v44.956h26.047v-7.333h-17.044V53.07h15.115v-7.14h-15.115V34.677h17.044v-7.331h-26.047Zm247.29.514v8.81h-4.246v7.397h4.246V61.24c0 7.375 3.794 11.063 11.383 11.063h5.66v-7.59h-4.181c-1.372 0-2.358-.257-2.958-.771-.558-.557-.838-1.437-.838-2.637V44.067h7.976v-7.396h-7.976v-8.81l-9.066-.001Zm117.951 0v8.81h-4.244v7.397h4.244V61.24c0 7.375 3.796 11.063 11.385 11.063h5.66v-7.59h-4.18c-1.373 0-2.359-.257-2.96-.771-.557-.557-.836-1.437-.836-2.637V44.067h7.976v-7.396h-7.976v-8.81l-9.069-.001Zm-192.622 7.01c2.702 0 5.081.6 7.14 1.8 2.057 1.201 3.666 2.937 4.823 5.21 1.158 2.23 1.737 4.845 1.737 7.846 0 3.001-.579 5.639-1.737 7.911-1.157 2.273-2.766 4.031-4.824 5.274-2.058 1.2-4.437 1.801-7.139 1.801-2.7 0-5.101-.6-7.202-1.8-2.058-1.244-3.667-3.002-4.824-5.275-1.158-2.272-1.737-4.91-1.737-7.91 0-3.002.579-5.617 1.737-7.847 1.157-2.273 2.766-4.009 4.824-5.21 2.1-1.2 4.501-1.8 7.202-1.8Zm119.046 0c2.701 0 5.08.6 7.139 1.8 2.058 1.201 3.666 2.937 4.824 5.21 1.158 2.23 1.736 4.845 1.736 7.846 0 3.001-.578 5.639-1.736 7.911-1.158 2.273-2.766 4.031-4.824 5.274-2.058 1.2-4.438 1.801-7.139 1.801-2.701 0-5.101-.6-7.202-1.8-2.058-1.244-3.667-3.002-4.825-5.275-1.157-2.272-1.736-4.91-1.736-7.91 0-3.002.579-5.617 1.736-7.847 1.158-2.273 2.767-4.009 4.825-5.21 2.1-1.2 4.501-1.8 7.202-1.8Zm-243.494 1.221c-3.044 0-5.81.752-8.297 2.252-2.444 1.501-4.395 3.643-5.853 6.43-1.415 2.787-2.12 5.983-2.12 9.584 0 3.645.705 6.882 2.12 9.712 1.458 2.787 3.41 4.952 5.853 6.495 2.487 1.544 5.232 2.316 8.233 2.316 2.659 0 4.994-.536 7.01-1.608 2.058-1.115 3.666-2.509 4.824-4.181v5.21h9.068v-35.63h-9.068v5.08c-1.2-1.629-2.81-2.979-4.824-4.05-1.973-1.072-4.287-1.61-6.946-1.61Zm42.641 0c-2.873 0-5.382.473-7.525 1.416-2.101.943-3.73 2.229-4.888 3.858a9.36 9.36 0 0 0-1.673 5.402c0 2.402.602 4.31 1.802 5.724 1.244 1.415 2.702 2.466 4.374 3.152 1.715.686 3.9 1.351 6.559 1.994 2.572.686 4.438 1.329 5.595 1.93 1.2.557 1.8 1.416 1.8 2.573 0 1.072-.493 1.95-1.479 2.635-.943.686-2.272 1.03-3.987 1.03-1.758 0-3.237-.45-4.437-1.351-1.158-.9-1.822-2.036-1.994-3.408h-9.068c.128 2.186.857 4.18 2.187 5.982 1.372 1.8 3.214 3.235 5.53 4.307 2.315 1.03 4.93 1.545 7.846 1.545 2.83 0 5.297-.45 7.398-1.351 2.144-.944 3.771-2.229 4.886-3.858 1.158-1.63 1.738-3.473 1.738-5.53-.043-2.359-.686-4.247-1.93-5.662-1.2-1.457-2.637-2.528-4.31-3.215-1.672-.686-3.794-1.35-6.367-1.994-2.53-.643-4.395-1.265-5.595-1.865-1.2-.644-1.8-1.565-1.8-2.766 0-1.072.428-1.908 1.285-2.509.9-.6 2.167-.899 3.796-.899 1.758 0 3.151.428 4.18 1.286 1.072.815 1.672 1.93 1.8 3.345h8.618c-.257-3.601-1.65-6.453-4.18-8.554-2.53-2.144-5.916-3.217-10.16-3.217h-.001Zm132.23 0c-2.615 0-4.952.558-7.01 1.673-2.015 1.072-3.601 2.424-4.759 4.053V36.67h-9.004v52.61h9.004V67.22c1.244 1.63 2.85 2.98 4.823 4.051 2.015 1.072 4.331 1.608 6.947 1.608 3.044 0 5.787-.772 8.231-2.316 2.487-1.543 4.438-3.708 5.853-6.495 1.458-2.83 2.187-6.067 2.187-9.712 0-3.644-.73-6.84-2.187-9.584-1.415-2.787-3.366-4.929-5.853-6.43-2.444-1.5-5.187-2.252-8.231-2.252l-.001.001Zm178.73 0c-2.873 0-5.381.473-7.525 1.416-2.101.943-3.729 2.229-4.887 3.858a9.359 9.359 0 0 0-1.672 5.402c0 2.402.6 4.31 1.8 5.724 1.244 1.415 2.702 2.466 4.374 3.152 1.715.686 3.902 1.351 6.56 1.994 2.573.686 4.437 1.329 5.594 1.93 1.2.557 1.802 1.416 1.802 2.573 0 1.072-.493 1.95-1.479 2.635-.943.686-2.274 1.03-3.989 1.03-1.758 0-3.237-.45-4.437-1.351-1.158-.9-1.822-2.036-1.994-3.408h-9.068c.128 2.186.857 4.18 2.187 5.982 1.372 1.8 3.216 3.235 5.532 4.307 2.315 1.03 4.93 1.545 7.846 1.545 2.83 0 5.295-.45 7.396-1.351 2.144-.944 3.773-2.229 4.888-3.858 1.158-1.63 1.736-3.473 1.736-5.53-.043-2.359-.686-4.247-1.93-5.662-1.2-1.457-2.637-2.528-4.31-3.215-1.671-.686-3.794-1.35-6.367-1.994-2.53-.643-4.393-1.265-5.593-1.865-1.201-.644-1.802-1.565-1.802-2.766 0-1.072.43-1.908 1.287-2.509.9-.6 2.165-.899 3.794-.899 1.758 0 3.151.428 4.18 1.286 1.072.815 1.672 1.93 1.8 3.345h8.62c-.257-3.601-1.65-6.453-4.18-8.554-2.53-2.144-5.918-3.217-10.163-3.217Zm-293.016.58 14.277 34.73-7.717 17.75h9.583l22.06-52.48h-9.583l-9.327 24.89-9.196-24.89h-10.097Zm212.237 0v20.901c0 3.173.6 5.918 1.8 8.233 1.244 2.272 2.938 4.008 5.082 5.209 2.144 1.158 4.609 1.738 7.396 1.738 2.187 0 4.202-.429 6.046-1.286 1.887-.9 3.408-2.124 4.565-3.667v4.503h9.069V36.67h-9.069v19.615c0 2.83-.706 5.017-2.12 6.56-1.416 1.501-3.367 2.253-5.854 2.253-2.444 0-4.374-.752-5.789-2.253-1.415-1.543-2.12-3.73-2.12-6.56V36.671h-9.006Zm-270.507 7.331a9.112 9.112 0 0 1 4.696 1.286c1.458.815 2.615 2.015 3.473 3.602.857 1.543 1.286 3.409 1.286 5.595 0 2.187-.429 4.075-1.286 5.661-.858 1.544-2.015 2.744-3.473 3.602a9.476 9.476 0 0 1-4.696 1.22c-1.63 0-3.172-.428-4.63-1.285-1.414-.858-2.573-2.079-3.474-3.665-.857-1.63-1.286-3.517-1.286-5.66 0-2.145.429-3.988 1.286-5.531.9-1.587 2.06-2.787 3.475-3.602a9.115 9.115 0 0 1 4.629-1.223Zm170.177 0a9.118 9.118 0 0 1 4.63 1.223c1.458.815 2.616 2.015 3.473 3.602.9 1.543 1.352 3.386 1.352 5.53 0 2.187-.451 4.074-1.352 5.66-.857 1.587-2.015 2.808-3.472 3.666a8.776 8.776 0 0 1-4.631 1.286 9.351 9.351 0 0 1-4.631-1.221c-1.415-.858-2.572-2.08-3.473-3.667-.857-1.586-1.286-3.452-1.286-5.596 0-2.143.429-4.009 1.286-5.595.9-1.587 2.058-2.787 3.473-3.602 1.458-.857 3.001-1.286 4.63-1.286h.001ZM51.602 70.575c-1.625 2.837-2.19 5.218-1.29 6.581.519.784 1.709.67 3.274.674l-7.041-.096 5.057-7.159Zm185.654 7.156h11.08v6.709h-11.08v-6.709Z" style="fill:#3f3f3f;fill-rule:nonzero"/><path d="M35.829 77.731h178.417v6.709H35.829v-6.709Zm-3.803-42.818-4.744 8.454" style="fill:#3f3f3f;fill-rule:nonzero"/><path d="m17.284 61.144 9.998-17.817 30.1 16.89-9.998 17.817c-3.356 5.98-11.038 8.14-17.018 4.784l-8.298-4.656c-5.98-3.356-8.14-11.038-4.784-17.018Zm14.742-26.271 37.876-67.49 6.652 3.733-37.876 67.49-6.652-3.733Zm8.397 4.713L78.3-27.904l13.305 7.466-37.876 67.49-13.306-7.466Zm15.048 8.445 37.876-67.49L100-15.727l-37.876 67.49-6.653-3.732Z" style="fill:#3f3f3f;fill-rule:nonzero"/></g></g></g></g></svg>

<?xml version="1.0" encoding="UTF-8" standalone="no"?>
<!DOCTYPE svg PUBLIC "-//W3C//DTD SVG 1.1//EN" "http://www.w3.org/Graphics/SVG/1.1/DTD/svg11.dtd">
<svg width="100%" height="100%" viewBox="0 0 128 128" version="1.1" xmlns="http://www.w3.org/2000/svg" xmlns:xlink="http://www.w3.org/1999/xlink" xml:space="preserve" xmlns:serif="http://www.serif.com/" style="fill-rule:evenodd;clip-rule:evenodd;stroke-linejoin:round;stroke-miterlimit:2;">
    <g transform="matrix(1.48478,0,0,1.51295,8.59448,-75.1631)">
        <path d="M80.42,70.83L80.42,113.132C80.42,124.805 70.762,134.283 58.868,134.283L15.764,134.283C3.869,134.283 -5.788,124.805 -5.788,113.132L-5.788,70.83C-5.788,59.157 3.869,49.68 15.764,49.68L58.868,49.68C70.762,49.68 80.42,59.157 80.42,70.83Z" style="fill:rgb(134,252,187);"/>
        <clipPath id="_clip1">
            <path d="M80.42,70.83L80.42,113.132C80.42,124.805 70.762,134.283 58.868,134.283L15.764,134.283C3.869,134.283 -5.788,124.805 -5.788,113.132L-5.788,70.83C-5.788,59.157 3.869,49.68 15.764,49.68L58.868,49.68C70.762,49.68 80.42,59.157 80.42,70.83Z"/>
        </clipPath>
        <g clip-path="url(#_clip1)">
            <g id="logo.svg" transform="matrix(0.862079,0,0,0.846028,224.818,89.7749)">
                <g transform="matrix(1,0,0,1,-267.5,-50)">
                    <g>
                        <clipPath id="_clip2">
                            <rect x="0" y="0" width="600" height="100"/>
                        </clipPath>
                        <g clip-path="url(#_clip2)">
                            <path d="M274.854,26.766C270.652,26.766 266.794,27.752 263.278,29.724C259.762,31.697 256.975,34.441 254.918,37.957C252.859,41.43 251.829,45.353 251.829,49.727C251.829,54.142 252.859,58.11 254.917,61.625C256.975,65.098 259.762,67.821 263.278,69.793C266.794,71.765 270.652,72.752 274.854,72.752C279.056,72.752 282.914,71.765 286.431,69.793C289.947,67.821 292.712,65.098 294.728,61.625C296.786,58.11 297.815,54.142 297.815,49.726C297.815,45.353 296.785,41.43 294.728,37.956C292.712,34.441 289.947,31.696 286.431,29.724C282.958,27.752 279.099,26.766 274.854,26.766ZM393.9,26.766C389.698,26.766 385.84,27.752 382.324,29.724C378.808,31.697 376.021,34.441 373.964,37.957C371.905,41.43 370.875,45.353 370.875,49.727C370.875,54.142 371.905,58.11 373.963,61.625C376.021,65.098 378.808,67.821 382.323,69.793C385.84,71.765 389.698,72.752 393.9,72.752C398.102,72.752 401.962,71.765 405.478,69.793C408.994,67.821 411.758,65.098 413.773,61.625C415.831,58.11 416.861,54.142 416.861,49.726C416.861,45.353 415.831,41.43 413.773,37.956C411.758,34.441 408.994,31.696 405.478,29.724C402.005,27.752 398.145,26.766 393.9,26.766ZM102.235,27.346L102.235,72.302L128.282,72.302L128.282,64.969L111.238,64.969L111.238,53.07L126.353,53.07L126.353,45.93L111.238,45.93L111.238,34.677L128.282,34.677L128.282,27.346L102.235,27.346ZM349.525,27.86L349.525,36.67L345.279,36.67L345.279,44.067L349.525,44.067L349.525,61.24C349.525,68.615 353.319,72.303 360.908,72.303L366.568,72.303L366.568,64.713L362.387,64.713C361.015,64.713 360.029,64.456 359.429,63.942C358.871,63.385 358.591,62.505 358.591,61.305L358.591,44.067L366.567,44.067L366.567,36.671L358.591,36.671L358.591,27.861L349.525,27.86ZM467.476,27.86L467.476,36.67L463.232,36.67L463.232,44.067L467.476,44.067L467.476,61.24C467.476,68.615 471.272,72.303 478.861,72.303L484.521,72.303L484.521,64.713L480.341,64.713C478.968,64.713 477.982,64.456 477.381,63.942C476.824,63.385 476.545,62.505 476.545,61.305L476.545,44.067L484.521,44.067L484.521,36.671L476.545,36.671L476.545,27.861L467.476,27.86ZM274.854,34.87C277.556,34.87 279.935,35.47 281.994,36.67C284.051,37.871 285.66,39.607 286.817,41.88C287.975,44.11 288.554,46.725 288.554,49.726C288.554,52.727 287.975,55.365 286.817,57.637C285.66,59.91 284.051,61.668 281.993,62.911C279.935,64.111 277.556,64.712 274.854,64.712C272.154,64.712 269.753,64.112 267.652,62.912C265.594,61.668 263.985,59.91 262.828,57.637C261.67,55.365 261.091,52.727 261.091,49.727C261.091,46.725 261.67,44.11 262.828,41.88C263.985,39.607 265.594,37.871 267.652,36.67C269.752,35.47 272.153,34.87 274.854,34.87ZM393.9,34.87C396.601,34.87 398.98,35.47 401.039,36.67C403.097,37.871 404.705,39.607 405.863,41.88C407.021,44.11 407.599,46.725 407.599,49.726C407.599,52.727 407.021,55.365 405.863,57.637C404.705,59.91 403.097,61.668 401.039,62.911C398.981,64.111 396.601,64.712 393.9,64.712C391.199,64.712 388.799,64.112 386.698,62.912C384.64,61.668 383.031,59.91 381.873,57.637C380.716,55.365 380.137,52.727 380.137,49.727C380.137,46.725 380.716,44.11 381.873,41.88C383.031,39.607 384.64,37.871 386.698,36.67C388.798,35.47 391.199,34.87 393.9,34.87ZM150.406,36.091C147.362,36.091 144.596,36.843 142.109,38.343C139.665,39.844 137.714,41.986 136.256,44.773C134.841,47.56 134.136,50.756 134.136,54.357C134.136,58.002 134.841,61.239 136.256,64.069C137.714,66.856 139.666,69.021 142.109,70.564C144.596,72.108 147.341,72.88 150.342,72.88C153.001,72.88 155.336,72.344 157.352,71.272C159.41,70.157 161.018,68.763 162.176,67.091L162.176,72.301L171.244,72.301L171.244,36.671L162.176,36.671L162.176,41.751C160.976,40.122 159.366,38.772 157.352,37.701C155.379,36.629 153.065,36.091 150.406,36.091ZM193.047,36.091C190.174,36.091 187.665,36.564 185.522,37.507C183.421,38.45 181.792,39.736 180.634,41.365C179.533,42.95 178.948,44.837 178.961,46.767C178.961,49.169 179.563,51.077 180.763,52.491C182.007,53.906 183.465,54.957 185.137,55.643C186.852,56.329 189.037,56.994 191.696,57.637C194.268,58.323 196.134,58.966 197.291,59.567C198.491,60.124 199.091,60.983 199.091,62.14C199.091,63.212 198.598,64.09 197.612,64.775C196.669,65.461 195.34,65.805 193.625,65.805C191.867,65.805 190.388,65.355 189.188,64.454C188.03,63.554 187.366,62.418 187.194,61.046L178.126,61.046C178.254,63.232 178.983,65.226 180.313,67.028C181.685,68.828 183.527,70.263 185.843,71.335C188.158,72.365 190.773,72.88 193.689,72.88C196.519,72.88 198.986,72.43 201.087,71.529C203.231,70.585 204.858,69.3 205.973,67.671C207.131,66.041 207.711,64.198 207.711,62.141C207.668,59.782 207.025,57.894 205.781,56.479C204.581,55.022 203.144,53.951 201.471,53.264C199.799,52.578 197.677,51.914 195.104,51.27C192.574,50.627 190.709,50.005 189.509,49.405C188.309,48.761 187.709,47.84 187.709,46.639C187.709,45.567 188.137,44.731 188.994,44.13C189.894,43.53 191.161,43.231 192.79,43.231C194.548,43.231 195.941,43.659 196.97,44.517C198.042,45.332 198.642,46.447 198.77,47.862L207.388,47.862C207.131,44.261 205.738,41.409 203.208,39.308C200.678,37.164 197.292,36.091 193.048,36.091L193.047,36.091ZM325.277,36.091C322.662,36.091 320.325,36.649 318.267,37.764C316.252,38.836 314.666,40.188 313.508,41.817L313.508,36.67L304.504,36.67L304.504,89.28L313.508,89.28L313.508,67.22C314.752,68.85 316.358,70.2 318.331,71.271C320.346,72.343 322.662,72.879 325.278,72.879C328.322,72.879 331.065,72.107 333.509,70.563C335.996,69.02 337.947,66.855 339.362,64.068C340.82,61.238 341.549,58.001 341.549,54.356C341.549,50.712 340.819,47.516 339.362,44.772C337.947,41.985 335.996,39.843 333.509,38.342C331.065,36.842 328.322,36.09 325.278,36.09L325.277,36.091ZM504.007,36.091C501.134,36.091 498.626,36.564 496.482,37.507C494.381,38.45 492.753,39.736 491.595,41.365C490.494,42.95 489.91,44.837 489.923,46.767C489.923,49.169 490.523,51.077 491.723,52.491C492.967,53.906 494.425,54.957 496.097,55.643C497.812,56.329 499.999,56.994 502.657,57.637C505.23,58.323 507.094,58.966 508.251,59.567C509.451,60.124 510.053,60.983 510.053,62.14C510.053,63.212 509.56,64.09 508.574,64.775C507.631,65.461 506.3,65.805 504.585,65.805C502.827,65.805 501.348,65.355 500.148,64.454C498.99,63.554 498.326,62.418 498.154,61.046L489.086,61.046C489.214,63.232 489.943,65.226 491.273,67.028C492.645,68.828 494.489,70.263 496.805,71.335C499.12,72.365 501.735,72.88 504.651,72.88C507.481,72.88 509.946,72.43 512.047,71.529C514.191,70.585 515.82,69.3 516.935,67.671C518.093,66.041 518.671,64.198 518.671,62.141C518.628,59.782 517.985,57.894 516.741,56.479C515.541,55.022 514.104,53.951 512.431,53.264C510.76,52.578 508.637,51.914 506.064,51.27C503.534,50.627 501.671,50.005 500.471,49.405C499.27,48.761 498.669,47.84 498.669,46.639C498.669,45.567 499.099,44.731 499.956,44.13C500.856,43.53 502.121,43.231 503.75,43.231C505.508,43.231 506.901,43.659 507.93,44.517C509.002,45.332 509.602,46.447 509.73,47.862L518.35,47.862C518.093,44.261 516.7,41.409 514.17,39.308C511.64,37.164 508.252,36.091 504.007,36.091ZM210.991,36.671L225.268,71.401L217.551,89.151L227.134,89.151L249.194,36.671L239.611,36.671L230.284,61.561L221.088,36.671L210.991,36.671ZM423.228,36.671L423.228,57.572C423.228,60.745 423.828,63.49 425.028,65.805C426.272,68.077 427.966,69.813 430.11,71.014C432.254,72.172 434.719,72.752 437.506,72.752C439.693,72.752 441.708,72.323 443.552,71.466C445.439,70.566 446.96,69.342 448.117,67.799L448.117,72.302L457.186,72.302L457.186,36.67L448.117,36.67L448.117,56.285C448.117,59.115 447.411,61.302 445.997,62.845C444.581,64.346 442.63,65.098 440.143,65.098C437.699,65.098 435.769,64.346 434.354,62.845C432.939,61.302 432.234,59.115 432.234,56.285L432.234,36.671L423.228,36.671ZM152.721,44.002C154.374,43.997 155.997,44.441 157.417,45.288C158.875,46.103 160.032,47.303 160.89,48.89C161.747,50.433 162.176,52.299 162.176,54.485C162.176,56.672 161.747,58.56 160.89,60.146C160.032,61.69 158.875,62.89 157.417,63.748C155.984,64.555 154.366,64.976 152.721,64.968C151.091,64.968 149.549,64.54 148.091,63.683C146.677,62.825 145.518,61.604 144.617,60.018C143.76,58.388 143.331,56.501 143.331,54.358C143.331,52.213 143.76,50.37 144.617,48.827C145.517,47.24 146.677,46.04 148.092,45.225C149.498,44.412 151.097,43.99 152.721,44.002ZM322.898,44.002C324.523,43.99 326.121,44.412 327.528,45.225C328.986,46.04 330.144,47.24 331.001,48.827C331.901,50.37 332.353,52.213 332.353,54.357C332.353,56.544 331.902,58.431 331.001,60.017C330.144,61.604 328.986,62.825 327.529,63.683C326.135,64.534 324.531,64.98 322.898,64.969C321.275,64.971 319.678,64.55 318.267,63.748C316.852,62.89 315.695,61.668 314.794,60.081C313.937,58.495 313.508,56.629 313.508,54.485C313.508,52.342 313.937,50.476 314.794,48.89C315.694,47.303 316.852,46.103 318.267,45.288C319.725,44.431 321.268,44.002 322.897,44.002L322.898,44.002ZM51.602,70.575C49.977,73.412 49.412,75.793 50.312,77.156C50.831,77.94 52.021,77.826 53.586,77.83L46.545,77.734L51.602,70.575ZM237.256,77.731L248.336,77.731L248.336,84.44L237.256,84.44L237.256,77.731Z" style="fill:rgb(63,63,63);fill-rule:nonzero;"/>
                            <path d="M35.829,77.731L214.246,77.731L214.246,84.44L35.829,84.44L35.829,77.731ZM32.026,34.913L27.282,43.367" style="fill:rgb(63,63,63);fill-rule:nonzero;"/>
                            <path d="M17.284,61.144L27.282,43.327L57.382,60.217L47.384,78.034C44.028,84.014 36.346,86.174 30.366,82.818L22.068,78.162C16.088,74.806 13.928,67.124 17.284,61.144ZM32.026,34.873L69.902,-32.617L76.554,-28.884L38.678,38.606L32.026,34.873ZM40.423,39.586L78.3,-27.904L91.605,-20.438L53.729,47.052L40.423,39.586ZM55.471,48.031L93.347,-19.459L100,-15.727L62.124,51.763L55.471,48.031Z" style="fill:rgb(63,63,63);fill-rule:nonzero;"/>
                        </g>
                    </g>
                </g>
            </g>
        </g>
    </g>
</svg>
